/* XPM */
static char *zaurusarduboy_xpm[] = {
"32 32 4 1",
"  c None",
". c #000000",
"# c #ffffff",
"+ c #808080",
"                                ",
"       ..................       ",
"     ..##################..     ",
"    .######################.    ",
"   .####................####.   ",
"  .###..################..###.  ",
"  .##.####################.##.  ",
" .##.####....####....####.##.  ",
" .##.####....####....####.##.  ",
" .##.####################.##.  ",
" .##.####....####....####.##.  ",
" .##.####....####....####.##.  ",
" .##.####################.##.  ",
" .##.####....####....####.##.  ",
" .##.####....####....####.##.  ",
" .##.####################.##.  ",
"  .##.####################.##.  ",
"  .###..################..###.  ",
"   .####................####.   ",
"    .######################.    ",
"     ..##################..     ",
"       ..................       ",
"          ....      ....        ",
"        ..####..  ..####..      ",
"       .########..########.     ",
"       .########..########.     ",
"        ..####..  ..####..      ",
"          ....      ....        ",
"                                ",
"                                ",
"                                ",
"                                "
"};
